X:1
T: O'Sullivan of Killarney
C:Bruce Shawyer
R:Jig
I:speed 180
K:Em
M:6/8
L:1/16
B4|E2F2G2 B2G2E2|E2F2G2 B4B2|D2E2F2 A2F2D2|D2E2F2 A6|E2F2G2 B2G2E2|E2F2G2 B4B2|B2A2G2 A2G2F2|E6 E6|
E2F2G2 B2G2E2|E2F2G2 B4B2|D2E2F2 A2F2D2|D2E2F2 A6|E2F2G2 B2G2E2|E2F2G2 B4B2|B2A2G2 A2B2^d2|e6 e6|
e2f2g2 g2e2B2|e2f2g2 g4g2|d2e2f2 f2d2A2|d2e2f2 f6|c2d2e2 e2c2G2|c2d2e2 e4e2|d2c2B2 A2B2^d2|e6 e6|
e2f2g2 g2e2B2|e2f2g2 g4g2|d2e2f2 f2d2A2|d2e2f2 f6|c2d2e2 e2c2G2|c2d2e2 e4e2|d2c2B2 A2G2F2|E6 E6||
